X: 13
T: Porthole Of The Kelp
C: Bobby Casey
Z: RobSheldrick
S: https://thesession.org/tunes/263#setting52012
R: reel
M: 4/4
L: 1/8
K: Ddor
DE|(F4F)EDE|{E}F2DF ECCE|EFDE FFAG|EFDC A,C D(E|
E)FDE FFAB|cAGF ECCE|A,DFG AddB|cAGE {F}EDD2|
FFLDE FELDE |FELDF L{D}E~E3|D(F/G/F)E FGAG|FDEGD4|
(EF2)E FGAB|cAGF E4|D2 E/F/GA2 d/c/B |cAGE {F}EDD2|
(cd2)d2cAG|EFFG E3F|D3(d d)cBc|ABBc d2cd|
efed dcAG|EFF2DEE2|D2 E/F/GA2 d/c/B |cAGE {F}EDD2|
dDD/D/D dcAG|EF2G DE2F|[_B,D]3(d d)cBc|ABBc dD2D|
[A,D]3 f2 ddc|AGFG DEE2|[G,D]2 E/F/GA2 c/c/B |cAGE {F}EDD2|

%-------------------- TUNE SEPARATOR --------------------%

